data/work-sans.svg

<svg width="73.22" height="16.422" viewBox="0 0 73.22 16.422" xmlns="http://www.w3.org/2000/svg"><path transform="translate(0 13.02) scale(.014 -.014)" d="M231 0 36 660H119L282 73L437 660H528L683 71L846 660H925L731 0H632L515 428L481 577H480L446 428L330 0Z"/><path transform="translate(13.454 13.02) scale(.014 -.014)" d="m300 510q71 0 125.5-31t85.5-89.5 31-139.5-31-139.5-85.5-89.5-125.5-31q-70 0-125 31t-86 89.5-31 139.5 31 139.5 86 89.5 125 31zm0-69q-51 0-87-23t-55.5-65.5-19.5-102.5q0-59 19.5-102t55.5-66 87-23 87 23 55.5 66 19.5 102q0 60-19.5 102.5t-55.5 65.5-87 23z"/><path transform="translate(21.854 13.02) scale(.014 -.014)" d="m93 0v500h65l11-82q21 46 61.5 69t98.5 23q13 0 28.5-2t26.5-8l-14-73q-11 4-24 6t-37 2q-31 0-62.5-18t-52.5-54.5-21-92.5v-270z"/><path transform="translate(27.566 13.02) scale(.014 -.014)" d="m532 500-399-399v100l298 299zm-359 230v-730h-80v730zm150-405 221-325h-97l-191 280z"/><path transform="translate(40.278 13.02) scale(.014 -.014)" d="m320 670q87 0 150-35.5t105-104.5l-67-52q-37 64-83.5 90.5t-112.5 26.5q-53 0-87.5-15t-50.5-39.5-16-55.5q0-35 22-61.5t88-41.5l143-32q95-21 132.5-63.5t37.5-105.5q0-56-31.5-99.5t-88.5-67.5-134-24q-72 0-126.5 19.5t-93.5 52.5-64 74l70 57q19-38 49-67t72.5-45 97.5-16q51 0 88.5 12.5t57.5 37 20 59.5q0 32-21 57.5t-79 38.5l-155 35q-61 14-98.5 38.5t-54 58-16.5 72.5q0 53 29.5 97.5t85 71.5 131.5 27z"/><path transform="translate(49.252 13.02) scale(.014 -.014)" d="m385 323q0 56-30 86.5t-85 30.5q-52 0-88-22.5t-53-72.5l-65 40q20 56 74 90.5t134 34.5q54 0 98-18.5t69.5-56 25.5-96.5v-242q0-36 38-36 19 0 37 5l-4-63q-20-10-52-10-29 0-52 11t-36 33.5-13 56.5v10l20-3q-12-39-41-63.5t-65-36-71-11.5q-44 0-82 15t-60.5 45.5-22.5 75.5q0 56 37.5 92.5t104.5 49.5l198 39v-66l-161-33q-49-10-73-28t-24-50q0-31 24.5-50.5t69.5-19.5q29 0 55.5 7.5t47.5 23 33 39 12 55.5z"/><path transform="translate(57.176 13.02) scale(.014 -.014)" d="m93 0v500h70l7-112-13 11q16 40 43 64.5t62.5 35.5 73.5 11q54 0 98-20.5t70.5-62.5 26.5-107v-320h-80v292q0 83-35.5 115.5t-87.5 32.5q-36 0-72-17t-59.5-55-23.5-102v-266z"/><path transform="translate(65.842 13.02) scale(.014 -.014)" d="m273-10q-73 0-134.5 31t-94.5 88l68 49q22-46 64.5-72t102.5-26q53 0 83 20.5t30 53.5q0 21-13.5 38.5t-51.5 25.5l-120 25q-73 15-104.5 50t-31.5 87q0 41 23.5 75t67 54.5 102.5 20.5q74 0 125-29t76-82l-67-44q-17 44-55 64.5t-79 20.5q-36 0-61.5-10t-39-27.5-13.5-39.5 15-40.5 56-26.5l125-26q70-14 98-46t28-78q0-47-25-82.5t-70-54.5-104-19z"/></svg>

<?xml version="1.0" encoding="utf-8" ?>
<svg baseProfile="tiny" height="100%" version="1.2" width="100%" xmlns="http://www.w3.org/2000/svg" xmlns:ev="http://www.w3.org/2001/xml-events" xmlns:xlink="http://www.w3.org/1999/xlink"><defs /><g><path d="M231 0 36 660H119L282 73L437 660H528L683 71L846 660H925L731 0H632L515 428L481 577H480L446 428L330 0Z" transform="translate(0.0, 72) scale(0.072, -0.072)" /><path d="M300 510Q371 510 425.5 479.0Q480 448 511.0 389.5Q542 331 542 250Q542 169 511.0 110.5Q480 52 425.5 21.0Q371 -10 300 -10Q230 -10 175.0 21.0Q120 52 89.0 110.5Q58 169 58 250Q58 331 89.0 389.5Q120 448 175.0 479.0Q230 510 300 510ZM300 441Q249 441 213.0 418.0Q177 395 157.5 352.5Q138 310 138 250Q138 191 157.5 148.0Q177 105 213.0 82.0Q249 59 300 59Q351 59 387.0 82.0Q423 105 442.5 148.0Q462 191 462 250Q462 310 442.5 352.5Q423 395 387.0 418.0Q351 441 300 441Z" transform="translate(69.192, 72) scale(0.072, -0.072)" /><path d="M93 0V500H158L169 418Q190 464 230.5 487.0Q271 510 329 510Q342 510 357.5 508.0Q373 506 384 500L370 427Q359 431 346.0 433.0Q333 435 309 435Q278 435 246.5 417.0Q215 399 194.0 362.5Q173 326 173 270V0Z" transform="translate(112.392, 72) scale(0.072, -0.072)" /><path d="M532 500 316 284 297 265 133 101V201L431 500ZM173 730V0H93V730ZM323 325 544 0H447L256 280Z" transform="translate(141.768, 72) scale(0.072, -0.072)" /><path d="M320 670Q407 670 470.0 634.5Q533 599 575 530L508 478Q471 542 424.5 568.5Q378 595 312 595Q259 595 224.5 580.0Q190 565 174.0 540.5Q158 516 158 485Q158 450 180.0 423.5Q202 397 268 382L411 350Q506 329 543.5 286.5Q581 244 581 181Q581 125 549.5 81.5Q518 38 461.0 14.0Q404 -10 327 -10Q255 -10 200.5 9.5Q146 29 107.0 62.0Q68 95 43 136L113 193Q132 155 162.0 126.0Q192 97 234.5 81.0Q277 65 332 65Q383 65 420.5 77.5Q458 90 478.0 114.5Q498 139 498 174Q498 206 477.0 231.5Q456 257 398 270L243 305Q182 319 144.5 343.5Q107 368 90.5 401.5Q74 435 74 474Q74 527 103.5 571.5Q133 616 188.5 643.0Q244 670 320 670Z" transform="translate(207.14399999999998, 72) scale(0.072, -0.072)" /><path d="M385 323Q385 379 355.0 409.5Q325 440 270 440Q218 440 182.0 417.5Q146 395 129 345L64 385Q84 441 138.0 475.5Q192 510 272 510Q326 510 370.0 491.5Q414 473 439.5 435.5Q465 398 465 339V97Q465 61 503 61Q522 61 540 66L536 3Q516 -7 484 -7Q455 -7 432.0 4.0Q409 15 396.0 37.5Q383 60 383 94V104L403 101Q391 62 362.0 37.5Q333 13 297.0 1.5Q261 -10 226 -10Q182 -10 144.0 5.0Q106 20 83.5 50.5Q61 81 61 126Q61 182 98.5 218.5Q136 255 203 268L401 307V241L240 208Q191 198 167.0 180.0Q143 162 143 130Q143 99 167.5 79.5Q192 60 237 60Q266 60 292.5 67.5Q319 75 340.0 90.5Q361 106 373.0 129.5Q385 153 385 185Z" transform="translate(253.29599999999996, 72) scale(0.072, -0.072)" /><path d="M93 0V500H163L170 388L157 399Q173 439 200.0 463.5Q227 488 262.5 499.0Q298 510 336 510Q390 510 434.0 489.5Q478 469 504.5 427.0Q531 385 531 320V0H451V292Q451 375 415.5 407.5Q380 440 328 440Q292 440 256.0 423.0Q220 406 196.5 368.0Q173 330 173 266V0Z" transform="translate(294.04799999999994, 72) scale(0.072, -0.072)" /><path d="M273 -10Q200 -10 138.5 21.0Q77 52 44 109L112 158Q134 112 176.5 86.0Q219 60 279 60Q332 60 362.0 80.5Q392 101 392 134Q392 155 378.5 172.5Q365 190 327 198L207 223Q134 238 102.5 273.0Q71 308 71 360Q71 401 94.5 435.0Q118 469 161.5 489.5Q205 510 264 510Q338 510 389.0 481.0Q440 452 465 399L398 355Q381 399 343.0 419.5Q305 440 264 440Q228 440 202.5 430.0Q177 420 163.5 402.5Q150 385 150 363Q150 341 165.0 322.5Q180 304 221 296L346 270Q416 256 444.0 224.0Q472 192 472 146Q472 99 447.0 63.5Q422 28 377.0 9.0Q332 -10 273 -10Z" transform="translate(338.61599999999993, 72) scale(0.072, -0.072)" /></g></svg>
